X:1
T:Come, for All Things Are Ready
T:William James Kirkpatrick
T:Come, for All Things Are Ready
T:Public Domain
T:Public Domain
C:William James Kirkpatrick
Z:Public Domain
%%score ( 1 2 ) 3
L:1/8
M:3/4
K:F
V:1 treble 
V:2 treble 
V:3 bass 
V:1
 C>C | [CF]2 [CF]2 [CG]2 | [FA]2 [FA]2 [CF]>[CF] | [FA]2 [FA]2 [EB]2 | [Fc]4 [Fc]>[Fc] | %5
w: 1.~Come, for|are read- y!|’Tis a ban- quet|of love; Here’s|a free in-|
w: 2.~Come, for|are read- y!|Hea- ven’s bount- y|is spread; Take|the cup of|
w: 3.~Come, for|are read- y!|Here’s a robe, snow-|y white, Fair-|er far than|
 [Fd]2 [FB]2 [Fd]2 | [Fc]2 [FA]2 [Fc]>[Fc] | [Fc]2 [EB]2 [FA]2 | [EG]4 C>C | [CF]2 [CF]2 [CG]2 | %10
w: vi- ta- tion|from the Mas- ter|a- bove: It|is writ- ten|son, drawn from|
w: sal- va- tion,|take the life giv-|ing bread: Come,|the poor and|thy, come, though|
w: the rai- ment|of the an- gels|of light: For|the beau- ty|sus will thy|
 [FA]2 [FA]2 [CF]>[CF] | [FA]2 [FA]2 [EB]2 | [Fc]4 [Fc]>[Fc] | [Fd]2 [FB]2 [Fd]2 | %14
w: Cal- va- ry’s flood,|From the won-|der- ful fount-|ain of the|
w: sin- ful and weak;|’Tis the hung-|ry and thirst-|y whom the|
w: cov- er- ing be;|On- ly ask|for this gar-|ment, ’twill be|
 [Fc]2 [FA]2 [Fc]>[Fc] | [EB]2 [EA]2 [EG]2 | [CF]4 ||"^Refrain" [Fc]>[Fc] | [Fc]2 [FA]2 [CF]2 | %19
w: soul cleans- ing blood.|||||
w: Mas- ter doth seek.|||||
w: giv- en to thee.|||||
 [CF]2 [CE]2 [EB]>[EB] | [EB]2 [EA]2 [EG]2 | [FA]4 [Fc]>[Fc] | [Fd]2 [FB]2 [Fd]2 | %23
w: ||||
w: ||||
w: ||||
 [Fc]2 [FA]2 [Fc]2 | [EB]2 [EA]2 [EG]2 | [CF]4 |] %26
w: |||
w: |||
w: |||
V:2
 C>C | x6 | x6 | x6 | x6 | x6 | x6 | x6 | x4 C>C | x6 | x6 | x6 | x6 | x6 | x6 | x6 | x4 || x2 | %18
w: all things||||||||in crim-||||||||||
w: all things||||||||un- wor-||||||||||
w: all things||||||||of Je-||||||||||
 x6 | x6 | x6 | x6 | x6 | x6 | x6 | x4 |] %26
w: ||||||||
w: ||||||||
w: ||||||||
V:3
 [F,A,]>[F,A,] | [F,A,]2 [F,A,]2 [F,B,]2 | [F,C]2 [F,C]2 [F,A,]>[F,A,] | [F,C]2 [F,C]2 [G,C]2 | %4
w: ~ ~|~ ~ ~|~ ~ ~ ~|~ ~ ~|
 [A,C]4 [F,A,]>[F,A,] | [B,,B,]2 [B,,D]2 [B,,B,]2 | [F,A,]2 [F,C]2 [F,A,]>[F,A,] | %7
w: ~ ~ ~|~ ~ ~|~ ~ ~ ~|
 [A,C]2 [G,C]2 [F,C]2 | [C,C]4 [E,G,]>[E,G,] | [F,A,]2 [F,A,]2 [F,B,]2 | %10
w: ~ ~ ~|~ ~ ~|~ ~ ~|
 [F,C]2 [F,C]2 [F,A,]>[F,A,] | [F,C]2 [F,C]2 [G,C]2 | [A,C]4 [F,A,]>[F,A,] | %13
w: ~ ~ ~ ~|~ ~ ~|~ ~ ~|
 [B,,B,]2 [B,,D]2 [B,,B,]2 | [F,A,]2 [F,C]2 [F,A,]>[F,A,] | [C,G,]2 [C,C]2 [C,B,]2 | [F,A,]4 || %17
w: ~ ~ ~|~ ~ ~ ~|~ ~ ~|~|
 [F,A,]>[F,A,] | [F,A,]2 [F,C]2 [F,A,]2 | [G,B,]2 [G,B,]2 [C,G,]>[C,G,] | [C,G,]2 [C,C]2 [C,C]2 | %21
w: Oh, what|full- ness in|Je- sus! Oh, what|glad- ness to|
 [F,C]4 [F,A,]>[F,A,] | [B,,B,]2 [D,B,]2 [B,,B,]2 | [F,A,]2 [F,C]2 [F,A,]2 | %24
w: know, Though our|sins be as|scar- let, He’ll|
 [G,C]2 [C,C]2 [C,B,]2 | [F,,F,A,]4 |] %26
w: make them as|snow.|

